svgs/sharp-regular/arrow-down-big-small.svg

<svg xmlns="http://www.w3.org/2000/svg" viewBox="0 0 576 512"><!--! Font Awesome Pro 6.6.0 by @fontawesome - https://fontawesome.com License - https://fontawesome.com/license (Commercial License) Copyright 2024 Fonticons, Inc. --><path d="M160 478.7l-17-17-96-96-17-17L64 314.9l17 17 55 55L136 56l0-24 48 0 0 24 0 330.9 55-55 17-17 33.9 33.9-17 17-96 96-17 17zM432 432l0-64-64 0 0 64 64 0zm-64 48l-48 0 0-48 0-64 0-48 48 0 64 0 48 0 0 48 0 64 0 48-48 0-64 0zm0-272l128 0 0-128L368 80l0 128zm-48 48l0-48 0-128 0-48 48 0 128 0 48 0 0 48 0 128 0 48-48 0-128 0-48 0z"/></svg>

<svg xmlns="http://www.w3.org/2000/svg" viewBox="0 0 576 512"><!--! Font Awesome Pro 6.4.2 by @fontawesome - https://fontawesome.com License - https://fontawesome.com/license (Commercial License) Copyright 2023 Fonticons, Inc. --><path d="M160 478.7l-17-17-96-96-17-17L64 314.9l17 17 55 55V56 32h48V56 386.9l55-55 17-17 33.9 33.9-17 17-96 96-17 17zM432 432V368H368v64h64zm-64 48H320V432 368 320h48 64 48v48 64 48H432 368zm0-272H496V80H368V208zm-48 48V208 80 32h48H496h48V80 208v48H496 368 320z"/></svg>
